svgs/thin/sensor-fire.svg

<svg xmlns="http://www.w3.org/2000/svg" viewBox="0 0 640 512"><!--! Font Awesome Pro 6.0.0-alpha3 by @fontawesome - https://fontawesome.com License - https://fontawesome.com/license (Commercial License) --><path d="M572.3 279.2c-2.594-5.031-5.438-10.22-8.672-15.5c-1.328-2.188-3.609-3.594-6.141-3.812c-2.547-.375-5 .75-6.703 2.688l-37.64 42.88c-16.95-21.59-64.06-81.59-68.39-86.66C443.2 217 440.1 216 438.6 216c-2.359 0-4.641 1.062-6.141 2.875C397.3 261 376 289 376 322.1C376 381.2 420.6 424 482.1 424c22.67 0 44.28-6.781 62.48-19.59C583.5 377.2 595.4 323.3 572.3 279.2zM535.4 391.3C535.4 391.3 535.4 391.3 535.4 391.3C519.9 402.2 501.5 408 482.1 408C429.1 408 392 372.7 392 322.1c0-24.09 13.81-45.72 46.53-85.47c14.08 17.69 48.44 61.44 67.92 86.28c1.469 1.875 3.703 3 6.078 3.063c2.391 .1247 4.656-.9378 6.234-2.719l36.63-41.72c.9062 1.688 1.797 3.344 2.641 5.031C577.5 323.7 567.7 368.7 535.4 391.3zM552.1 156.5c-3.062-2.812-7.766-2.75-10.83 .0313c-11.47 10.56-22.31 21.78-32.34 33.38c-18.53-24.09-39.48-46.88-62.41-67.84c-3.031-2.812-7.734-2.812-10.8 0C369 184.1 320 266.2 320 317.2C320 406.9 391.8 480 480 480s160-73.06 160-162.8C640 279 604.3 203.7 552.1 156.5zM480 464c-79.41 0-144-65.88-144-146.8c0-44.88 45.2-120.5 106-178.2c22.56 21.22 43.06 44.25 61 68.59c1.469 2 3.766 3.188 6.234 3.25c2.312-.3125 4.828-1.031 6.391-2.938c9.781-11.94 20.48-23.47 31.89-34.41C591.7 216.8 624 283.7 624 317.2C624 398.1 559.4 464 480 464zM344 464H64c-26.51 0-48-21.49-48-48V96c0-26.51 21.49-48 48-48h320c24.16 0 44.2 17.94 47.52 41.19C432.1 93.1 435.4 96 439.4 96c4.846 0 8.67-4.297 7.988-9.094C442.9 55.87 416.3 32 384 32H64.05C28.7 32 0 60.65 0 96v320c0 35.35 28.7 64 64.05 64H344c4.418 0 8-3.582 8-8S348.4 464 344 464zM206.6 104v176c0 4.406 3.594 8 8 8s8-3.594 8-8v-176c0-4.406-3.594-8-8-8S206.6 99.59 206.6 104zM142.6 104v176c0 4.406 3.594 8 8 8s8-3.594 8-8v-176c0-4.406-3.594-8-8-8S142.6 99.59 142.6 104zM78.6 104v176c0 4.406 3.594 8 8 8s8-3.594 8-8v-176c0-4.406-3.594-8-8-8S78.6 99.59 78.6 104z"/></svg>

<svg xmlns="http://www.w3.org/2000/svg" viewBox="0 0 640 512"><!-- Font Awesome Pro 6.0.0-alpha2 by @fontawesome - https://fontawesome.com License - https://fontawesome.com/license (Commercial License) --><path d="M572.25 279.219C569.656 274.187 566.812 269 563.578 263.719C562.25 261.531 559.969 260.125 557.438 259.906C554.891 259.531 552.438 260.656 550.734 262.594L513.094 305.469C496.141 283.875 449.031 223.875 444.703 218.813C443.188 217.031 440.969 216 438.625 216H438.578C436.219 216 433.984 217.062 432.484 218.875C397.344 261.031 376 289 376 322.125C376 381.156 420.625 424 482.125 424C504.797 424 526.406 417.219 544.609 404.406C583.5 377.188 595.375 323.344 572.25 279.219ZM535.422 391.312C535.406 391.312 535.406 391.312 535.391 391.344C519.906 402.25 501.484 408 482.125 408C429.062 408 392 372.688 392 322.125C392 298.031 405.812 276.406 438.531 236.656C452.609 254.344 486.969 298.094 506.453 322.938C507.922 324.813 510.156 325.938 512.531 326C514.922 326.125 517.188 325.063 518.766 323.281L555.391 281.563C556.297 283.25 557.187 284.906 558.031 286.594C577.469 323.688 567.75 368.719 535.422 391.312ZM552.969 156.531C549.906 153.719 545.203 153.781 542.141 156.563C530.672 167.125 519.828 178.344 509.797 189.938C491.266 165.844 470.312 143.063 447.391 122.094C444.359 119.281 439.656 119.281 436.594 122.094C369.031 184.125 320 266.156 320 317.156C320 406.938 391.781 480 480 480S640 406.938 640 317.156C640 279 604.266 203.656 552.969 156.531ZM480 464C400.594 464 336 398.125 336 317.156C336 272.281 381.203 196.656 442.016 138.938C464.578 160.156 485.078 183.188 503.016 207.531C504.484 209.531 506.781 210.719 509.25 210.781C511.562 210.469 514.078 209.75 515.641 207.844C525.422 195.906 536.125 184.375 547.531 173.438C591.656 216.781 624 283.719 624 317.156C624 398.125 559.406 464 480 464ZM344 464H64C37.49 464 16 442.51 16 416V96C16 69.49 37.49 48 64 48H384C408.156 48 428.203 65.938 431.52 89.191C432.076 93.104 435.42 96 439.371 96C444.217 96 448.041 91.703 447.359 86.906C442.943 55.865 416.26 32 384 32H64C28.654 32 0 60.654 0 96V416C0 451.346 28.654 480 64 480H344C348.418 480 352 476.418 352 472S348.418 464 344 464ZM206.596 104V280C206.596 284.406 210.189 288 214.596 288S222.596 284.406 222.596 280V104C222.596 99.594 219.002 96 214.596 96S206.596 99.594 206.596 104ZM142.596 104V280C142.596 284.406 146.189 288 150.596 288S158.596 284.406 158.596 280V104C158.596 99.594 155.002 96 150.596 96S142.596 99.594 142.596 104ZM78.596 104V280C78.596 284.406 82.189 288 86.596 288S94.596 284.406 94.596 280V104C94.596 99.594 91.002 96 86.596 96S78.596 99.594 78.596 104Z"/></svg>
